img/mobile-nav/3.svg

<svg width="42" height="40" viewBox="0 0 42 40" fill="none" xmlns="http://www.w3.org/2000/svg">
<path d="M14.4137 33.6982C14.7563 33.3598 15.1071 32.8145 16.203 32.8145C17.2981 32.8145 28.2737 32.8145 29.3688 32.8145C30.3627 32.8145 35.8309 27.3981 36.526 26.6284C37.1943 25.8878 40.1735 21.4665 40.9993 19.5585C40.4804 18.8683 39.0785 18.2947 37.4207 18.6747C35.8389 19.0379 34.9085 20.1594 33.842 22.2097L29.9458 24.2078" stroke="white" stroke-width="2" stroke-miterlimit="10" stroke-linejoin="round"/>
<path d="M19.5278 27.5121C19.5278 27.5121 26.685 27.5121 27.5797 27.5121C31.1583 27.5121 31.1583 23.0934 27.5797 23.0934C26.685 23.0934 24.6998 23.0934 22.2117 23.0934C21.4665 23.0934 20.0681 21.3259 18.8872 21.3259C18.362 21.3259 15.6226 21.3259 14.4139 21.3259C13.2043 21.3259 11.7031 22.2945 10.8353 23.0934C9.49421 24.4181 7.19495 26.5674 7.19495 26.5674" stroke="white" stroke-width="2" stroke-miterlimit="10" stroke-linecap="round" stroke-linejoin="round"/>
<path d="M10.8409 39.0001L15.3141 34.5815L5.47317 24.8607L0.999971 29.2793L10.8409 39.0001Z" stroke="white" stroke-width="2" stroke-miterlimit="10" stroke-linejoin="round"/>
<path d="M5.46741 29.2795L7.25672 31.047" stroke="white" stroke-width="2" stroke-miterlimit="10" stroke-linejoin="round"/>
<path d="M32.9469 9.83736C32.9469 9.50508 32.9156 9.18074 32.8709 8.86083L34.611 7.25598L32.4638 3.58228L30.1878 4.26806C29.668 3.86684 29.0936 3.53456 28.4736 3.28623L27.9368 1H23.6425L23.1057 3.28623C22.4857 3.53456 21.9114 3.86684 21.3916 4.26806L19.1156 3.58228L16.9684 7.25598L18.7085 8.86083C18.6637 9.18074 18.6324 9.50508 18.6324 9.83736C18.6324 10.1696 18.6637 10.494 18.7085 10.8139L16.9684 12.4188L19.1156 16.0925L21.3916 15.4067C21.9114 15.8079 22.4857 16.1402 23.1057 16.3885L23.6425 18.6747H27.9368L28.4736 16.3885C29.0936 16.1402 29.668 15.8079 30.1878 15.4067L32.4638 16.0925L34.611 12.4188L32.8709 10.8139C32.9156 10.494 32.9469 10.1696 32.9469 9.83736Z" stroke="#A50034" stroke-width="2" stroke-miterlimit="10" stroke-linejoin="round"/>
<path d="M25.79 12.4887C27.2724 12.4887 28.474 11.3017 28.474 9.83749C28.474 8.37327 27.2724 7.18628 25.79 7.18628C24.3077 7.18628 23.1061 8.37327 23.1061 9.83749C23.1061 11.3017 24.3077 12.4887 25.79 12.4887Z" stroke="#A50034" stroke-width="2" stroke-miterlimit="10" stroke-linejoin="round"/>
</svg>

<svg xmlns="http://www.w3.org/2000/svg" fill="none" viewBox="0 0 42 40">
  <path stroke="#fff" stroke-linejoin="round" stroke-miterlimit="10" stroke-width="2" d="M14.414 33.698c.342-.338.693-.883 1.789-.883h13.166c.994 0 6.462-5.417 7.157-6.187.668-.74 3.647-5.162 4.473-7.07-.519-.69-1.92-1.263-3.578-.883-1.582.363-2.513 1.484-3.579 3.535l-3.896 1.998"/>
  <path stroke="#fff" stroke-linecap="round" stroke-linejoin="round" stroke-miterlimit="10" stroke-width="2" d="M19.528 27.512h8.052c3.578 0 3.578-4.419 0-4.419h-5.368c-.745 0-2.144-1.767-3.325-1.767h-4.473c-1.21 0-2.71.968-3.579 1.767-1.34 1.325-3.64 3.474-3.64 3.474"/>
  <path stroke="#fff" stroke-linejoin="round" stroke-miterlimit="10" stroke-width="2" d="m10.84 39 4.474-4.419-9.84-9.72L1 29.279 10.84 39Zm-5.373-9.72 1.79 1.767"/>
  <path stroke="#A50034" stroke-linejoin="round" stroke-miterlimit="10" stroke-width="2" d="M32.947 9.837c0-.332-.031-.656-.076-.976l1.74-1.605-2.147-3.674-2.276.686a7.163 7.163 0 0 0-1.714-.982L27.937 1h-4.295l-.536 2.286c-.62.249-1.195.58-1.714.982l-2.276-.686-2.148 3.674 1.74 1.605c-.044.32-.076.644-.076.976 0 .333.032.657.076.977l-1.74 1.605 2.148 3.674 2.276-.686c.52.4 1.094.733 1.714.982l.536 2.286h4.295l.537-2.287a7.163 7.163 0 0 0 1.714-.981l2.276.686 2.147-3.674-1.74-1.605c.045-.32.076-.644.076-.977Z"/>
  <path stroke="#A50034" stroke-linejoin="round" stroke-miterlimit="10" stroke-width="2" d="M25.79 12.489c1.482 0 2.684-1.187 2.684-2.652 0-1.464-1.202-2.65-2.684-2.65-1.482 0-2.684 1.186-2.684 2.65 0 1.465 1.202 2.652 2.684 2.652Z"/>
</svg>
